fonts/kmap-icons/SVG_edits/essays.svg

<?xml version="1.0" encoding="utf-8"?>
<!-- Generated by IcoMoon.io -->
<!DOCTYPE svg PUBLIC "-//W3C//DTD SVG 1.1//EN" "http://www.w3.org/Graphics/SVG/1.1/DTD/svg11.dtd">
<svg version="1.1" xmlns="http://www.w3.org/2000/svg" xmlns:xlink="http://www.w3.org/1999/xlink" width="32" height="32" viewBox="0 0 32 32">
<g>
</g>
	<path d="M12 10v16h13v-16h-13zM23 24h-9v-12h9v12z" fill="#000000" />
	<path d="M7 6v16h13v-16h-13zM18 20h-9v-12h9v12z" fill="#000000" />
</svg>

<?xml version="1.0" encoding="utf-8"?>
<!-- Generator: Adobe Illustrator 14.0.0, SVG Export Plug-In . SVG Version: 6.00 Build 43363)  -->
<!DOCTYPE svg PUBLIC "-//W3C//DTD SVG 1.1//EN" "http://www.w3.org/Graphics/SVG/1.1/DTD/svg11.dtd">
<svg version="1.1" id="Layer_1" xmlns="http://www.w3.org/2000/svg" xmlns:xlink="http://www.w3.org/1999/xlink" x="0px" y="0px"
	 width="32px" height="32px" viewBox="0 0 32 32" enable-background="new 0 0 32 32" xml:space="preserve">
<path fill-rule="evenodd" clip-rule="evenodd" fill="#231F20" d="M12,10v16h13V10H12z M23,24h-9V12h9V24z"/>
<path fill-rule="evenodd" clip-rule="evenodd" fill="#231F20" d="M7,6v16h13V6H7z M18,20H9V8h9V20z"/>
<path fill-rule="evenodd" clip-rule="evenodd" fill="none" d="M12,11h2v9h-2V11"/>
<path fill-rule="evenodd" clip-rule="evenodd" fill="none" d="M12,12v-2h7v2H12"/>
</svg>
